/* XPM */
static char *_9ea86f1e41a40e68ff9e1dcaaae76d3znDOD9QvjCXSU4VN[] = {
/* columns rows colors chars-per-pixel */
"90 90 4 1 ",
"  c gray13",
". c #6D4C41",
"X c #8D6E63",
"o c #D3F9BC",
/* pixels */
"oooooooooooooooooooooooooooooooooooooooooooooooooooooooooooooooooooooooooooooooooooooooooo",
"oooooooooooooooooooooooooooooooooooooooooooooooooooooooooooooooooooooooooooooooooooooooooo",
"oooooooooooooooooooooooooooooooooooooooooooooooooooooooooooooooooooooooooooooooooooooooooo",
"oooooooooooooooooooooooooooooooooooooooooooooooooooooooooooooooooooooooooooooooooooooooooo",
"oooooooooooooooooooooooooooooooooooooooooooooooooooooooooooooooooooooooooooooooooooooooooo",
"oooooooooooooooooooooooooooooooooooooooooooooooooooooooooooooooooooooooooooooooooooooooooo",
"oooooooooooooooooooooooooooooooooooooooooooooooooooooooooooooooooooooooooooooooooooooooooo",
"oooooooooooooooooooooooooooooooooooooooooooooooooooooooooooooooooooooooooooooooooooooooooo",
"oooooooooo....XXXX....XXXX....XXXX....XXXX....    ....XXXX....XXXX....XXXX....XXXooooooooo",
"oooooooooo....XXXX....XXXX....XXXX....XXXX....    ....XXXX....XXXX....XXXX....XXXooooooooo",
"oooooooooo....XXXX....XXXX....XXXX....XXXX....    ....XXXX....XXXX....XXXX....XXXooooooooo",
"oooooooooo....XXXX....XXXX....XXXX....XXXX....    ....XXXX....XXXX....XXXX....XXXooooooooo",
"oooooooooo....XXXX....XXXX....XXXX....XXXX....    ....XXXX....XXXX....XXXX....XXXooooooooo",
"oooooooooo....XXXX....XXXX....XXXX....XXXX....    ....XXXX....XXXX....XXXX....XXXooooooooo",
"oooooooooo....XXXX....XXXX....XXXX....XXXX....    ....XXXX....XXXX....XXXX....XXXooooooooo",
"oooooooooo....XXXX....XXXX....XXXX....XXXX....    ....XXXX....XXXX....XXXX....XXXooooooooo",
"oooooooooo....XXXX....XXXX....XXXX....XXXX....    ....XXXX....XXXX....XXXX....XXXooooooooo",
"oooooooooo....XXXX....XXXX....XXXX....XXXX....    ....XXXX....XXXX....XXXX....XXXooooooooo",
"oooooooooo....XXXX....XXXX....XXXX....XXXX....    ....XXXX....XXXX....XXXX....XXXooooooooo",
"oooooooooo....XXXX....XXXX....XXXX....XXXX....    ....XXXX....XXXX....XXXX....XXXooooooooo",
"oooooooooo....XXXX....XXXX....XXXX....XXXX....    ....XXXX....XXXX....XXXX....XXXooooooooo",
"oooooooooo....XXXX....XXXX....XXXX....XXXX....    ....XXXX....XXXX....XXXX....XXXooooooooo",
"oooooooooo....XXXX....XXXX....XXXX....XXXX....    ....XXXX....XXXX....XXXX....XXXooooooooo",
"oooooooooo....XXXX....XXXX....XXXX....XXXX....    ....XXXX....XXXX....XXXX....XXXooooooooo",
"oooooooooo....XXXX....XXXX....XXXX....XXXX....    ....XXXX....XXXX....XXXX....XXXooooooooo",
"oooooooooo....XXXX....XXXX....XXXX....XXXX....    ....XXXX....XXXX....XXXX....XXXooooooooo",
"oooooooooo....XXXX....XXXX....XXXX....XXXX....    ....XXXX....XXXX....XXXX....XXXooooooooo",
"oooooooooo....XXXX....XXXX....XXXX....XXXX....    ....XXXX....XXXX....XXXX....XXXooooooooo",
"oooooooooo....XXXX....XXXX....XXXX....XXXX....    ....XXXX....XXXX....XXXX....XXXooooooooo",
"oooooooooo....XXXX....XXXX....XXXX....XXXX....    ....XXXX....XXXX....XXXX....XXXooooooooo",
"oooooooooo....XXXX....XXXX....XXXX....XXXX....    ....XXXX....XXXX....XXXX....XXXooooooooo",
"oooooooooo....XXXX....XXXX....XXXX....XXXX....    ....XXXX....XXXX....XXXX....XXXooooooooo",
"oooooooooo....XXXX....XXXX....XXXX....XXXX....    ....XXXX....XXXX....XXXX....XXXooooooooo",
"oooooooooo....XXXX....XXXX....XXXX....XXXX....    ....X    ...XXXX....XXXX....XXXooooooooo",
"oooooooooo....XXXX....XXXX....XXXX.      X....    ....      ..XXXX....XXXX....XXXooooooooo",
"oooooooooo....XXXX....XXXX....XXXX        ....    ...        .XXXX....XXXX....XXXooooooooo",
"oooooooooo....XXXX....XXXX....XXXX        ....    ...        .XXXX....XXXX....XXXooooooooo",
"oooooooooo....XXXX....XXXX....XXXX        ....    ...        .XXXX....XXXX....XXXooooooooo",
"oooooooooo....XXXX....XXXX....XXXX        ....    ...        .XXXX....XXXX....XXXooooooooo",
"oooooooooo....XXXX....XXXX....XXXX        ....    ...        .XXXX....XXXX....XXXooooooooo",
"oooooooooo....XXXX....XXXX....XXXX        ....    ...        .XXXX....XXXX....XXXooooooooo",
"oooooooooo....XXXX....XXXX....XXXX        ....    ...        .XXXX....XXXX....XXXooooooooo",
"oooooooooo....XXXX....XXXX....XXXX        ....    ...        .XXXX....XXXX....XXXooooooooo",
"oooooooooo....XXXX....XXXX....XXXX.      X....    ....      ..XXXX....XXXX....XXXooooooooo",
"oooooooooo....XXXX....XXXX....XXXX....XXXX....    ....X    ...XXXX....XXXX....XXXooooooooo",
"oooooooooo....XXXX....XXXX....XXXX....XXXX....    ....XXXX....XXXX....XXXX....XXXooooooooo",
"oooooooooo....XXXX....XXXX....XXXX....XXXX....    ....XXXX....XXXX....XXXX....XXXooooooooo",
"oooooooooo....XXXX....XXXX....XXXX....XXXX....    ....XXXX....XXXX....XXXX....XXXooooooooo",
"oooooooooo....XXXX....XXXX....XXXX....XXXX....    ....XXXX....XXXX....XXXX....XXXooooooooo",
"oooooooooo....XXXX....XXXX....XXXX....XXXX....    ....XXXX....XXXX....XXXX....XXXooooooooo",
"oooooooooo....XXXX....XXXX....XXXX....XXXX....    ....XXXX....XXXX....XXXX....XXXooooooooo",
"oooooooooo....XXXX....XXXX....XXXX....XXXX....    ....XXXX....XXXX....XXXX....XXXooooooooo",
"oooooooooo....XXXX....XXXX....XXXX....XXXX....    ....XXXX....XXXX....XXXX....XXXooooooooo",
"oooooooooo....XXXX....XXXX....XXXX....XXXX....    ....XXXX....XXXX....XXXX....XXXooooooooo",
"oooooooooo....XXXX....XXXX....XXXX....XXXX....    ....XXXX....XXXX....XXXX....XXXooooooooo",
"oooooooooo....XXXX....XXXX....XXXX....XXXX....    ....XXXX....XXXX....XXXX....XXXooooooooo",
"oooooooooo....XXXX....XXXX....XXXX....XXXX....    ....XXXX....XXXX....XXXX....XXXooooooooo",
"oooooooooo....XXXX....XXXX....XXXX....XXXX....    ....XXXX....XXXX....XXXX....XXXooooooooo",
"oooooooooo....XXXX....XXXX....XXXX....XXXX....    ....XXXX....XXXX....XXXX....XXXooooooooo",
"oooooooooo....XXXX....XXXX....XXXX....XXXX....    ....XXXX....XXXX....XXXX....XXXooooooooo",
"oooooooooo....XXXX....XXXX....XXXX....XXXX....    ....XXXX....XXXX....XXXX....XXXooooooooo",
"oooooooooo....XXXX....XXXX....XXXX....XXXX....    ....XXXX....XXXX....XXXX....XXXooooooooo",
"oooooooooo....XXXX....XXXX....XXXX....XXXX....    ....XXXX....XXXX....XXXX....XXXooooooooo",
"oooooooooo....XXXX....XXXX....XXXX....XXXX....    ....XXXX....XXXX....XXXX....XXXooooooooo",
"oooooooooo....XXXX....XXXX....XXXX....XXXX....    ....XXXX....XXXX....XXXX....XXXooooooooo",
"oooooooooo....XXXX....XXXX....XXXX....XXXX....    ....XXXX....XXXX....XXXX....XXXooooooooo",
"oooooooooo....XXXX....XXXX....XXXX....XXXX....    ....XXXX....XXXX....XXXX....XXXooooooooo",
"oooooooooo....XXXX....XXXX....XXXX....XXXX....    ....XXXX....XXXX....XXXX....XXXooooooooo",
"oooooooooo....XXXX....XXXX....XXXX....XXXX....    ....XXXX....XXXX....XXXX....XXXooooooooo",
"oooooooooo....XXXX....XXXX....XXXX....XXXX....    ....XXXX....XXXX....XXXX....XXXooooooooo",
"oooooooooo....XXXX....XXXX....XXXX....XXXX....    ....XXXX....XXXX....XXXX....XXXooooooooo",
"oooooooooo....XXXX....XXXX....XXXX....XXXX....    ....XXXX....XXXX....XXXX....XXXooooooooo",
"oooooooooo....XXXX....XXXX....XXXX....XXXX....    ....XXXX....XXXX....XXXX....XXXooooooooo",
"oooooooooo....XXXX....XXXX....XXXX....XXXX....    ....XXXX....XXXX....XXXX....XXXooooooooo",
"oooooooooo....XXXX....XXXX....XXXX....XXXX....    ....XXXX....XXXX....XXXX....XXXooooooooo",
"oooooooooo....XXXX....XXXX....XXXX....XXXX....    ....XXXX....XXXX....XXXX....XXXooooooooo",
"oooooooooo....XXXX....XXXX....XXXX....XXXX....    ....XXXX....XXXX....XXXX....XXXooooooooo",
"oooooooooo....XXXX....XXXX....XXXX....XXXX....    ....XXXX....XXXX....XXXX....XXXooooooooo",
"oooooooooo....XXXX....XXXX....XXXX....XXXX....    ....XXXX....XXXX....XXXX....XXXooooooooo",
"oooooooooo....XXXX....XXXX....XXXX....XXXX....    ....XXXX....XXXX....XXXX....XXXooooooooo",
"oooooooooo....XXXX....XXXX....XXXX....XXXX....    ....XXXX....XXXX....XXXX....XXXooooooooo",
"oooooooooooooooooooooooooooooooooooooooooooooooooooooooooooooooooooooooooooooooooooooooooo",
"oooooooooooooooooooooooooooooooooooooooooooooooooooooooooooooooooooooooooooooooooooooooooo",
"oooooooooooooooooooooooooooooooooooooooooooooooooooooooooooooooooooooooooooooooooooooooooo",
"oooooooooooooooooooooooooooooooooooooooooooooooooooooooooooooooooooooooooooooooooooooooooo",
"oooooooooooooooooooooooooooooooooooooooooooooooooooooooooooooooooooooooooooooooooooooooooo",
"oooooooooooooooooooooooooooooooooooooooooooooooooooooooooooooooooooooooooooooooooooooooooo",
"oooooooooooooooooooooooooooooooooooooooooooooooooooooooooooooooooooooooooooooooooooooooooo",
"oooooooooooooooooooooooooooooooooooooooooooooooooooooooooooooooooooooooooooooooooooooooooo",
"oooooooooooooooooooooooooooooooooooooooooooooooooooooooooooooooooooooooooooooooooooooooooo"
};
